X:33
T:Untitled. RDO.33
M:2/4
L:1/8
Q:1/2=100
S:Robert D. Owen MS,Indiana,1826.
R:.Country Dance
O:Indiana,USA
A:New Harmony
Z:vmp.Chris Partington
K:D
f/g/|a2ag|f2d2|a2ag|f2d2|fga2|fga2|a>bag|f2d2|!
a2ag|f2d2|a2ag|f2d2|fga2|fga2|edef|d2z:|!
|:z|a2ab|a2ab|agfg|a2d’2|a2d’2|a2d’2|edcd|e2a2|
a2ab|a2ab|(ag)fg|a2d’2|a2d’2|a2d’2|edef|d2z:|!
|:z|b2b^a|b2b^a|b^aba|b4|fgfg|fgfg|fgfe|d2B2|!
b2b^a|b2b^a|”s’qu’s”b^aba|b4|fgfg|fgfg|fedcB2z:|

